src/lib/packages/icons/src/assets/filled/money-bill-check.svg

<svg xmlns="http://www.w3.org/2000/svg" width="24" height="24" fill="none"><path fill="currentColor" d="M18 13c-2.21 0-4 1.79-4 4s1.79 4 4 4 4-1.79 4-4-1.79-4-4-4Zm1.6 3.52-1.66 1.67c-.1.09-.23.14-.36.14-.12 0-.25-.05-.35-.14l-.83-.84c-.2-.19-.2-.51 0-.7.19-.2.51-.2.7 0l.48.48 1.32-1.32c.19-.19.51-.19.7 0 .2.2.2.51 0 .71ZM17 4H5C3 4 2 5 2 7v8c0 2 1 3 3 3h7.23c.17 0 .31-.14.31-.31A5.51 5.51 0 0 1 18 11.5c.56 0 1.1.08 1.6.24.2.06.4-.08.4-.28V7c0-2-1-3-3-3ZM5 12c-.55 0-1-.45-1-1s.45-1 1-1 1 .45 1 1-.45 1-1 1Zm6 2c-1.66 0-3-1.34-3-3s1.34-3 3-3 3 1.34 3 3-1.34 3-3 3Z"/></svg>

<svg width="24" height="24" viewBox="0 0 24 24" fill="none" xmlns="http://www.w3.org/2000/svg">
<path d="M18 13C15.79 13 14 14.79 14 17C14 19.21 15.79 21 18 21C20.21 21 22 19.21 22 17C22 14.79 20.21 13 18 13ZM19.6 16.52L17.94 18.19C17.84 18.28 17.71 18.33 17.58 18.33C17.46 18.33 17.33 18.28 17.23 18.19L16.4 17.35C16.2 17.16 16.2 16.84 16.4 16.65C16.59 16.45 16.91 16.45 17.1 16.65L17.58 17.13L18.9 15.81C19.09 15.62 19.41 15.62 19.6 15.81C19.8 16.01 19.8 16.32 19.6 16.52ZM17 4H5C3 4 2 5 2 7V15C2 17 3 18 5 18H12.23C12.4 18 12.54 17.86 12.54 17.69C12.51 17.46 12.5 17.23 12.5 17C12.5 13.97 14.97 11.5 18 11.5C18.56 11.5 19.1 11.58 19.6 11.74C19.8 11.8 20 11.66 20 11.46V7C20 5 19 4 17 4ZM5 12C4.45 12 4 11.55 4 11C4 10.45 4.45 10 5 10C5.55 10 6 10.45 6 11C6 11.55 5.55 12 5 12ZM11 14C9.34 14 8 12.66 8 11C8 9.34 9.34 8 11 8C12.66 8 14 9.34 14 11C14 12.66 12.66 14 11 14Z" fill="currentColor"/>
</svg>
